!!!OTL: 864. Bedenken gegen das Heirathen.
!!!ODT: 1847
!!!ARE: Europa, Mitteleuropa, Deutschland, Hessen, Wetterau, Friedberg
!!!SCT: E0864
!!!TXL: @@DE
!!!YEM: Copyright 1995, estate of Helmut Schaffrath.
**kern	**text
*ICvox	*
*M2/4	*
*k[b-e-]	*
*B-:	*
!LO:TX:a:t=Munter.	!
!LO:TX:a:t=Mel. aus der Wetterau (Umgegend von Friedberg). 1847.	!
{8f	Wenn
=1	=1
8b-	ich
8b-	ans
8b-	Hei-
8b-	-rathen
=2	=2
8.b-L	den-
16gJ	.
4f}	-ke,
=3	=3
{4g	geht
8g	mich
8g	das
=4	=4
8.f	Grau-
16e-	-en
8d}	an;
{8f	mein
=5	=5
8d	Her-
8f	-ʒe
8d	thut
8f	ſich
=6	=6
4b-	krän-
8dd}	-ken,
{8dd	wenn
=7	=7
8dd	ich
8cc	ge-
8dd	-denk
8cc	da-
=8	=8
4b-	-ran.
8r}	.
{8ff	Soll
=9	=9
8.cc	tre-
16b-	-ten
8a	in
8b-	den
=10	=10
4cc	Stand,
8r}	.
{8ff	der
=11	=11
8.cc	e-
16b-	-wig
8a	wird
8g	ge-
=12	=12
(8.fL	-nannt?
16g	.
8fJ)}	.
{8e-	Das
=13	=13
8d	ſind
8f	ja
8d	ſchwe-
8f	-re
=14	=14
4b-	Sa-
8b-}	-chen,
{8b-	die
=15	=15
8cc	Angſt
8cc	und
8cc	Kummer
8cc	.
=16	=16
8.ddL	ma-
16ccJ	.
8b-}	-chen,
{8b-	die
=17	=17
8dd	nicht
8dd	ge-
8ee-	-fal-
8cc	-len
=18	=18
4b-	thun.
8r}	.
==	==
!!!AGN: Hochzeits -, Ehestands - Lied
!!!ONB: ESAC (Essen Associative Code) Database: ERK2
!!!AMT: simple duple
!!!AIN: vox
!!!EED: Helmut Schaffrath
!!!EEV: 1.0
!!!GTL: Hochzeits- und Ehrstandslieder, nebst Nonnenklagen
!!!URL-scan: https://rosdok.uni-rostock.de/mcrviewer/recordIdentifier/rosdok_ppn745177662/iview2/phys_0662.iview2?x=193.8995864193107&y=190.4288745499216&scale=0.7029437510502773&rotation=0&layout=singlePageLayout
!!!ENC: Anna Maria Matuszewska
!!!EEV: 2024/12/18
*-	*-
